ix/mirroring-screen_bulk.svg

<svg viewBox="0 0 24 24" fill="none" xmlns="http://www.w3.org/2000/svg" height="1em" width="1em">
  <path opacity="0.4" d="M2 9V8C2 5.24 4.24 3 7 3H17C19.76 3 22 5.24 22 8V16C22 18.76 19.76 21 17 21H16H7C4.24 21 2 18.76 2 16V9Z" fill="#292D32"/>
  <path d="M16.1383 15.44C15.7683 15.44 15.4483 15.16 15.3983 14.79C14.9683 11.41 12.5083 8.95003 9.12827 8.52003C8.71827 8.47003 8.42826 8.09001 8.47826 7.68001C8.52826 7.27001 8.90827 6.98002 9.31827 7.03002C13.3883 7.55002 16.3583 10.52 16.8883 14.6C16.9383 15.01 16.6483 15.39 16.2383 15.44C16.2083 15.44 16.1783 15.44 16.1383 15.44Z" fill="#292D32"/>
  <path d="M13.4389 16.3C13.0689 16.3 12.7489 16.02 12.6989 15.65C12.3889 13.27 10.6589 11.53 8.2689 11.22C7.8589 11.17 7.56889 10.79 7.61889 10.38C7.66889 9.96998 8.0489 9.67997 8.4589 9.72997C11.5389 10.13 13.7889 12.37 14.1889 15.46C14.2389 15.87 13.9489 16.25 13.5389 16.3C13.5089 16.3 13.4689 16.3 13.4389 16.3Z" fill="#292D32"/>
  <path d="M10.3891 16.81C10.0191 16.81 9.69911 16.53 9.64911 16.16C9.51911 15.14 8.77911 14.4 7.75912 14.27C7.34912 14.22 7.05912 13.84 7.10912 13.43C7.15912 13.02 7.53912 12.73 7.94912 12.78C9.63912 13 10.9191 14.28 11.1391 15.97C11.1891 16.38 10.8991 16.76 10.4891 16.81C10.4591 16.81 10.4191 16.81 10.3891 16.81Z" fill="#292D32"/>
</svg>

<svg viewBox="0 0 24 24" fill="none" xmlns="http://www.w3.org/2000/svg" height="1em" width="1em">
  <path opacity=".4" d="M2 9V8c0-2.76 2.24-5 5-5h10c2.76 0 5 2.24 5 5v8c0 2.76-2.24 5-5 5H7c-2.76 0-5-2.24-5-5V9Z" fill="#292D32"/>
  <path d="M16.138 15.44c-.37 0-.69-.28-.74-.65-.43-3.38-2.89-5.84-6.27-6.27a.753.753 0 0 1-.65-.84c.05-.41.43-.7.84-.65 4.07.52 7.04 3.49 7.57 7.57.05.41-.24.79-.65.84h-.1Z" fill="#292D32"/>
  <path d="M13.439 16.3c-.37 0-.69-.28-.74-.65-.31-2.38-2.04-4.12-4.43-4.43a.753.753 0 0 1-.65-.84c.05-.41.43-.7.84-.65 3.08.4 5.33 2.64 5.73 5.73.05.41-.24.79-.65.84h-.1Zm-3.049.51c-.37 0-.69-.28-.74-.65-.13-1.02-.87-1.76-1.89-1.89a.753.753 0 0 1-.65-.84c.05-.41.43-.7.84-.65 1.69.22 2.97 1.5 3.19 3.19.05.41-.24.79-.65.84h-.1Z" fill="#292D32"/>
</svg>
